svgs/sharp-duotone-regular/rings-wedding.svg

<svg xmlns="http://www.w3.org/2000/svg" viewBox="0 0 512 512"><!--! Font Awesome Pro 7.1.0 by @fontawesome - https://fontawesome.com License - https://fontawesome.com/license (Commercial License) Copyright 2025 Fonticons, Inc. --><path opacity=".4" fill="currentColor" d="M152 50.5l20.5 37.5 7 0 20.5-37.5-1.7-2.5-44.6 0-1.7 2.5z"/><path fill="currentColor" d="M172.5 88l-20.5-37.5 1.7-2.5 44.6 0 1.7 2.5-20.5 37.5-7 0zM96 48l30.1 55.2c-72.9 21.5-126.1 89-126.1 168.8 0 97.2 78.8 176 176 176 7.8 0 15.5-.5 23-1.5 32.3 39.9 81.6 65.5 137 65.5 97.2 0 176-78.8 176-176 0-84.8-60-155.6-139.9-172.3 10 18.1 17.6 37.7 22.3 58.4 41.3 21.2 69.6 64.3 69.6 113.9 0 70.7-57.3 128-128 128S208 406.7 208 336c0-54.9 34.6-101.8 83.2-119.9 8.2 16.9 12.8 35.9 12.8 55.9 0 37.5-16.2 71.3-41.9 94.7 6.3 15.2 17.2 28 30.9 36.8 36.2-32.2 59-79.2 59-131.5 0-79.9-53.2-147.3-126.1-168.8L256 48 224 0 128 0 96 48zM261.3 176.6c-59.9 28.1-101.3 88.9-101.3 159.4 0 22.6 4.2 44.1 12 63.9-68.8-2.1-124-58.6-124-127.9 0-70.7 57.3-128 128-128 32.8 0 62.7 12.3 85.3 32.6z"/></svg>

<svg xmlns="http://www.w3.org/2000/svg" viewBox="0 0 512 512"><!--! Font Awesome Pro 6.7.2 by @fontawesome - https://fontawesome.com License - https://fontawesome.com/license (Commercial License) Copyright 2024 Fonticons, Inc. --><defs><style>.fa-secondary{opacity:.4}</style></defs><path class="fa-secondary" d="M152 50.5L172.5 88l7 0L200 50.5 198.3 48l-44.6 0L152 50.5z"/><path class="fa-primary" d="M172.5 88L152 50.5l1.7-2.5 44.6 0 1.7 2.5L179.5 88l-7 0zM96 48l30.1 55.2C53.2 124.7 0 192.1 0 272c0 97.2 78.8 176 176 176c7.8 0 15.5-.5 23-1.5c32.3 39.9 81.6 65.5 137 65.5c97.2 0 176-78.8 176-176c0-91.9-70.4-167.3-160.3-175.3c10.4 16.5 18.6 34.5 24.2 53.6C427.1 231.1 464 279.2 464 336c0 70.7-57.3 128-128 128c-32.8 0-62.7-12.3-85.3-32.6c0 0 0 0 0 0c-12.3-11-22.5-24.4-29.8-39.5c0 0 0 0 0 0C212.6 375 208 356.1 208 336c0-54.9 34.6-101.8 83.2-119.9C299.4 233 304 251.9 304 272c0 43.5-21.7 81.9-54.8 105c7 14.8 17.7 27.5 30.8 37c43.7-32 72-83.7 72-142c0-79.9-53.2-147.3-126.1-168.8L256 48 224 0 128 0 96 48zM261.3 176.6C201.5 204.7 160 265.5 160 336c0 22.6 4.2 44.1 12 63.9C103.1 397.8 48 341.3 48 272c0-70.7 57.3-128 128-128c32.8 0 62.7 12.3 85.3 32.6z"/></svg>
